X:1
T:9 Lieder und Gesänge, Op.63
T:Heimweh III
T:9. Heimweh III
T:Johannes Brahms
T:Klaus Groth
T:9 Lieder und Gesänge, Op.63
T:Creative Commons copyright waiver (CC0 1.0 Universal) 
T:Creative Commons copyright waiver (CC0 1.0 Universal) 
T:Creative Commons copyright waiver (CC0 1.0 Universal) 
T:Creative Commons copyright waiver (CC0 1.0 Universal) 
C:Johannes Brahms
Z:Klaus Groth
Z:Creative Commons copyright waiver (CC0 1.0 Universal)
Z:
%%score 1 { ( 2 4 5 ) | 3 }
L:1/8
Q:1/4=40
M:2/4
K:A
V:1 treble nm="Singstimme\nVoice"
V:2 treble nm="Pianoforte"
V:4 treble 
V:5 treble 
V:3 bass 
V:1
"^Etwas langsam" z4 | z2 z!p! E | c3/2 c/ e3/2 e/ | (d/c/) (B/A/) G z/ e/ | %4
w: |Ich|sah als Kna- be|Blu- * men * blühn \_ ich|
!<(! (d/c/) (B/A/)!<)! G z/!>(! A/ | B3/2 F/ G!>)!!p! z/ E/ | B3/2 B/ d3/2 d/ | %7
w: weiss * nicht * mehr, was|war es doch? Ich|sah die Son- ne|
 (d/c/) (B/^A/) B z/ d/ | d3/2 A/ d3/2 A/ | B2 z!p! d | (c2- c/^A/) (c/f/) | (e2- e/d/) (B/G/) | %12
w: drü- * ber * glühn \_ mich|dünkt, ich seh es|noch, mich|dünkt, _ _ ich *|seh _ _ es *|
 A2 z2 | z2 z!mp! e |"^animato"[Q:1/4=50] e d B d | d =c A z/ c/ | =c3/2 B/ (^G/A/) (c/e/) | %17
w: noch.|Es|war ein Duft, es|war ein Glanz, die|See- le sog _ ihn _|
 (^f>^d) (B>A) | ^G2 z!mp! B | =c3/2 c/ c3/2 c/ | =c3/2 e/ d z/!f! =f/ | =e3/2 =f/ e3/2 f/ | %22
w: dur- * stend _|ein. Ich|pflück- te sie zu|ei- nem Kranz \_ wo|mag er blie- ben|
 e3!p! d | (^c2- c/^A/) (c/^f/) | (e2- e/d/) (B/G/) | A2 z2 | z2 z z/ E/ | c3/2 c/ e3/2 e/ | %28
w: sein? wo|mag _ _ er _|blie- * * ben *|sein?|ich|such an je- dem|
 (d/c/) (B/A/) G z/ e/ |!<(! (d/c/) (B/A/) G!<)! d | c =c B3/2 F/ | G2 z z/!p! E/ | %32
w: Blüm- * chen * nach um|je- * nen * Schmelz, um|je- nes, je- nes|Licht, ich|
 B3/2 B/ d3/2 d/ | (d/c/) (B/^A/) B z/!<(! d/ | d3/2 A/ d3/2 A/!<)! |!mf! B2 z!p! d | %36
w: for- sche je- den|Som- * mer- * tag, doch|sol- che find ich|nicht, doch|
 (c2- c/^A/) (c/f/) | (e2- e/d/) (B/G/) | A2 z2 | z2 z e | e d B =G | d =c A z/ =F/ | %42
w: sol- * * che *|find _ _ ich _|nicht.|Ihr|wuss- tet nim- mer,|was ich trieb? ich|
 =c3/2 B/ (^G/A/) (c/e/) | (^f>^d) (B>A) | ^G2 z!<(! B | e3/2 e/ =g3/2 g/ | %46
w: such- te mei- * nen *|al- * ten _|Kranz. Er|war so frisch, so|
 (=f/e/) (d/=c/) B z/!<)!!f! f/ | e3/2 =f/ e3/2 f/ |!>(! e3!>)!!p! d | (^c2- c/^A/) (c/^f/) | %50
w: licht, * so _ lieb \_ es|war der Ju- gend-|glanz, es|war _ _ der *|
 (e2- e/d/) (B/G/) | A2 z2 | z4 | z4 | z4 | z4 | !fermata!z4 |] %57
w: Ju- * * gend- *|glanz.||||||
V:2
 z ([Ee]2 [Ee]- | [Ee]3 d) | [Ac]>([Ac] [=Ge]>)[Ge] | ([Fd]/[Ec]/[DB]/[CA]/) [B,G] z/ (B,/ | %4
!p!!<(! [A,D])z/([=C^D]/ [B,E]/)([=D^E]/[^CF]/)!<)!([=C=E]/ | %5
!>(! [B,^D]/[I:staff +1][A,^C]/[G,B,]/[F,A,]/)!>)!!p! [E,G,][I:staff -1] z/ (E/ | %6
 [=GB])z/([GB]/ [Fd])z/[Fd]/- | ([Fd]/[Ec]/[DB]/[C^A]/) [DB]z/([Fd]/- | %8
 [Fd]/[E=c]/[DB]/[=CA]/ [DB]/[CA]/[B,=G]/[A,F]/) | [B,-=G]/[B,D]/[B,D]- ([B,D]/[A,=F]/)[A,F]- | %10
 [A,F]/([^CE]/[CE]-) ([CE]/[^A,C]/)[A,C]- | ([A,C]/[B,D]/)[B,D]- ([B,D]/[G,B,]/)[G,B,] | %12
!p!!<(! z ([Ee]2 [Ee]- | [Ee]3!<)! [Ee]) | z/ (A,/[DA]) z/ (B,/[DB]) | %15
 z/"_cresc." (=G,/[=C=G]) z/ (A,/[CA]) | %16
 z/[I:staff +1] (=F,/[I:staff -1][B,=F]) z/[I:staff +1] (E,/[I:staff -1][A,E]) | %17
 z/ (A,/[^DA]) z/[I:staff +1] (^D,/!ff![A,^D]) |[I:staff -1] x4 | [=G=ce]>([Gce] [_Bc=g]>)(([Bg] | %20
 ([A=f]/))[=Ge]/[=Fd]/[E=c]/) [DB] z/!f! [=F=f]/ | (e/d/=c/B/) (e/d/c/B/) | %22
 (e/d/=c/_B/ A/=G/^F/=F/) | (E/^C/E/A/ =G^F-) | (F/B,/D/B/ A/^G/D/E/) | z ([Ee]2 [Ee]- | [Ee]3 d) | %27
 [Ac]>([Ac] [=Ge]>)[Ge] | ([Fd]/[Ec]/[DB]/[CA]/) [B,G] z/ (B,/ | [A,D]>)([A,^D] [B,E]>)([=D^E] | %30
 F>)(=E [B,^D]/[A,^C]/[I:staff +1][G,B,]/[F,A,]/) | [E,G,][I:staff -1] z/ (E/ [EG]) z/ ([E-G]/ | %32
 [E=GB])z/(([GB]/ [Fd]))z/([Fd]/- | [Fd]/[Ec]/[DB]/[C^A]/) [DB]z/([Fd]/- | %34
 [Fd]/[E=c]/[DB]/[=CA]/ [DB]/[CA]/[B,=G]/[A,F]/) | [B,-=G]/[B,D]/[B,D]- ([B,D]/[A,=F]/)[A,F]- | %36
 ([A,=F]/[^CE]/)[CE]- ([CE]/[^A,C]/)[A,C]- | ([A,C]/[B,D]/)[B,D]- ([B,D]/[G,B,]/)[G,B,] | %38
 z ([Ee]2 [Ee]- | [Ee]3 d) | z/ (A,/[DA]) z/ (B,/[DB]) | z/ (=G,/[=C=G]) z/ (A,/[CA]) | %42
 z/ (=F,/[B,=F]) z/ (E,/[A,E]) | z/ (A,/[^DA]) z/[I:staff +1] (^D,/[A,^D]) |[I:staff -1] x4 | %45
 [E=G=c]z/([EG-c-]/ [G_Bc])z/([GBc-]/ | =c>)c [DB] z/!f! [=F=f]/ | (e/d/=c/B/) (e/d/c/B/) | %48
 (e/d/=c/_B/ A/=G/^F/=F/) | (E/^C/E/A/ =G^F-) | (F/B,/D/B/ A/^G/D/E/) | z ([Ee]2 [Ee]- | e3 d) | %53
!p!"_dim." z ([EAc]2 [^DAc]- | [DAc][EA][CE][G,=D]) | z C z C | %56
!pp! z[I:staff +1] !fermata![E,A,C]3 |] %57
V:3
!p!!<(! .A,,/(E,/[A,C]) .^A,,/(E,/[=G,C])!<)! |!mf!!>(! B,,/(E,/[^G,D]) E,,/(E,/B,)!>)! | %2
"^dolce"!p! A,,/(E,/[A,C]) C,/(E,/[A,E]) | D,,/(A,,/[D,F,]) E,,/(B,,/[E,G,]) | %4
 (F,,/D,/F,/^D,/) G,,/(G,/A,,/)F,/ | B,,,/B,,/^D,/B,,/ E,,/(B,,/[E,G,]) | %6
 E,,/(B,,/[E,=G,B,]) B,,,/(F,/[B,D]) |!p!!<(! F,,/(F,/^A,) B,,/(F,/[B,D]) | %8
 (D,,/D,/F,/!<)!!mf!D,/ D,,/D,/F,/D,/) |!>(! (=G,,>=G,,,!>)!!p! D,,>D,) | (E,,>C, E,>C,) | %11
 (E,,>B,, E,/E,,/D,/E,/) | A,,/(E,/[A,C]) ^A,,/(E,/[=G,C]) | B,,/(E,/[^G,D]) E,,/(E,/!mp!B,) | %14
"^animato" =F,,>=F, =G,,>F, | E,,>E, =F,,>E, | D,,>D, =C,,>=C, | B,,,>B,, B,,,>B,, | %18
 (3(E,,/B,,/E,/ (3^G,/[I:staff -1]E/!ff!!>(!^G/)[I:staff +1] (3(E,,/B,,/=G,/[I:staff -1] (3B,/=G/!>)!!mp!B/) | %19
!p![I:staff +1] (6:4:6(=C,,/=G,,/=C,/E,/G,/) z/ (6:4:6(E,,/C,/E,/G,/=C/) z/ | %20
 (3(^E,,/=C,/=F,/ A,/)^F,,/ (6:4:6(=G,,/D,/=G,/B,/D/) z/ | %21
"^sim." (6:4:6(^G,,/E,/^G,/B,/D/) z/ (6:4:6(D,,/G,,/D,/E,/G,/) z/ | %22
!f!!>(! (3(=C,,/A,,/=C,/ E,/)^C,,/ (3(D,,/A,,/D,/ A,/D,/)!>)! | %23
!p! (3(E,,/C,/E,/A,)"^sim." (3(E,,/C,/E,/^A,) | (3(E,,/B,,/D,/F,) (3(E,,/B,,/D,/E,) | %25
!p!"^dolce" A,,/(E,/[A,C]) ^A,,/(E,/[=G,C]) | B,,/(E,/[^G,D]) E,,/(E,/B,) | %27
 A,,/(E,/C) C,/(E,/[A,E]) | D,,/(A,,/[D,F,]) E,,/(B,,/[E,G,]) | %29
!<(! (F,,/D,/F,/^D,/) (G,,/E,/G,/^E,/)!<)! |!>(! (A,,/F,/A,/F,/ B,,,/B,,/^D,/!>)!!p!B,,/) | %31
 E,,/(B,,/[E,G,]) E,,/(B,,/[E,G,]) | E,,/(B,,/[E,=G,B,]) B,,,/(F,/[B,D]) | %33
 F,,/(F,/^A,) B,,/(F,/[B,D]) |!<(! (D,,/D,/F,/D,/) (D,,/D,/F,/!<)!D,/) | %35
!>(! (=G,,/D,/=G,/D,/) (D,,/!>)!!p!D,/"^dolce"=F,/D,/) | E,,/C,/E,/C,/ E,,/C,/E,/C,/ | %37
 E,,/B,,/E,/B,,/ E,,/D,/E,/D,/ |!p! A,,/(E,/!<(![A,C]) ^A,,/(E,/[=G,C])!<)! | %39
!>(! B,,/(E,/[^G,D]) E,,/(E,/!>)!B,) | =F,,>=F, =G,,>F, |"^cresc. animato" E,,>E, =F,,>E, | %42
!<(! D,,>D, =C,,>!<)!!mf!=C, | B,,,>B,, B,,,>B,, | %44
 (3(E,,/B,,/E,/ (3^G,/[I:staff -1]E/^G/)!<(![I:staff +1] (3(E,,/B,,/=G,/[I:staff -1] (3B,/=G/B/)!<)! | %45
[I:staff +1] (6:4:6(=C,,/=G,,/=C,/E,/=G,/) z/ (6:4:6(E,,/C,/E,/G,/=C/) z/ | %46
 (3(=F,,/=C,/=F,/ A,/)^F,,/"^sim." (6:4:6(=G,,/D,/=G,/B,/D/) z/ | %47
 (6:4:6(^G,,/E,/^G,/B,/D/) z/ (6:4:6(D,,/G,,/D,/E,/G,/) z/ | %48
!f!!>(! (3(=C,,/A,,/=C,/ E,/)^C,,/ (3(D,,/A,,/D,/ A,/[D,B,]/)!>)! | %49
!p! (3(E,,/^C,/E,/A,)"^sim." (3(E,,/C,/E,/^A,) | (3(E,,/B,,/D,/F,) (3(E,,/B,,/D,/E,) | %51
 A,,/(E,/!<(![A,C]) ^A,,/(E,/[=G,C])!<)! |!>(! B,,/(F,/[B,D]) E,,/!>)!(E,/B,) | %53
 A,,/(E,/[A,C])!<(! F,,/(E,/[^D,A,C])!<)! |!>(! E,,/(E,/[A,C])!>)! E,,/(E,/B,) | %55
 A,,/(E,/A,) z/ (E,/ [A,,A,]) | z !fermata![A,,,A,,]3 |] %57
V:4
 x4 | edBG | x4 | x4 | x4 | x4 | x4 | x4 | x4 | x4 | x4 | x4 | x4 | edBG | x4 | x4 | x4 | x4 | x4 | %19
 x4 | x4 | E2 E2 | E2 x2 | x4 | x4 | x4 | edBG | x4 | x4 | x4 | C=C x2 | x4 | x4 | x4 | x4 | x4 | %36
 x4 | x4 | x4 | edBG | x4 | x4 | x4 | x4 | x4 | x4 | A/=G/=F/E/ x2 | E2 E2 | E2 x2 | x4 | x4 | x4 | %52
 edBG | x4 | x4 | x4 | x4 |] %57
V:5
 x4 | x4 | x4 | x4 | x4 | x4 | x4 | x4 | x4 | x4 | x4 | x4 | x4 | x4 | x4 | x4 | x4 | x4 | x4 | %19
 x4 | x4 | x4 | x4 | x4 | x4 | x4 | x4 | x4 | x4 | x4 | x4 | x4 | x4 | x4 | x4 | x4 | x4 | x4 | %38
 x4 | x4 | x4 | x4 | x4 | x4 | x4 | x4 | x4 | x4 | x4 | x4 | x4 | x4 | E4 | x4 | x4 | x4 | x4 |] %57

